X:7414
T:Huntsman's Chorus in Dr. Freyschutz. GS.088
T:Der Freischtz,aka. GS.088
M:2/4
L:1/16
Q:100
C:C.M. von Weber
S:George Spencer m/s, Leeds,1831
R:Misc.
O:England
A:Leeds
N: There is a squiggle under the minim chord which  could be meant as a
N:crescendo and diminuendo.
H:1831
Z:vmp.Cherri Graebe
K:D major
"1st time piano, 2nd time forte"A2 | d4 (defg) | (a4 f2) .f2 | [A2e2][A2
a
2][A2e2][A2a2] | (fgfe) .d2.A2 | d4 (defg) | (a4f2).f2 | e2a2c'2b2 | a2a
2a2 :|!|: e2  | f4 f2f2 |
d4 d2d2 | g4 g2g2 | e4 e2e2 | f4 f2f2 | d4 d2d2 | g4 g2g2 | "pause" d6 e
2 | f4 f2f2 | (a2g2) f4 |! e2e2 (fede) | (f4 d2) A2 | f4 f2f2 | (a2g2) f
